Front-end-Projects/github_page/Images/Background_Dark.svg

<svg width="1512" height="1146" viewBox="0 0 1512 1146" fill="none" xmlns="http://www.w3.org/2000/svg">
<rect width="1512" height="1146" fill="#222222"/>
<g clip-path="url(#clip0_15_1244)">
<path d="M239.594 -9L-240.63 21.6875C-320.124 26.7673 -382.001 92.7239 -382.001 172.38V588C-382.001 671.395 -314.396 739 -231.001 739H1538C1621.39 739 1689 671.395 1689 588V152.611C1689 87.0409 1646.68 28.9649 1584.27 8.87374L1551.3 -1.7369C1536.35 -6.5495 1520.75 -9 1505.04 -9H1341.97C1320.76 -9 1026.75 30.7214 992.578 30.7214C972.258 30.7214 885.365 44.5905 813.136 56.8662C770.931 64.0392 727.972 52.8158 692.823 28.3775C678.167 18.1874 665.045 9.8331 658.507 7.50759C643.424 2.14262 372.947 -5.73287 239.594 -9Z" fill="url(#paint0_linear_15_1244)"/>
<path d="M272.904 47.3509L36.5035 91.1288C-35.0703 104.383 -87.001 166.814 -87.001 239.604V420.5C-87.001 503.895 -19.396 571.5 63.999 571.5H1635C1718.39 571.5 1786 503.895 1786 420.5V241C1786 184.667 1740.33 139 1684 139C1617.5 144.333 1482.3 155.4 1473.5 157C1464.7 158.6 1232.83 203 1118 225L978.229 252.818C936.087 261.206 892.304 251.337 858.323 225.038C812.15 189.303 761.925 149.059 755.499 139C748.328 127.775 701.399 100.227 663.922 79.7029C645.282 69.4952 624.533 63.8475 603.319 62.5851L309.369 45.0931C297.168 44.3671 284.923 45.1252 272.904 47.3509Z" fill="url(#paint1_linear_15_1244)"/>
<path d="M312.158 182.977L116.949 249.868C101.932 255.014 85.6779 255.314 70.4809 250.726C20.1964 235.544 -29.9083 274.881 -27.0936 327.332L-23.7481 389.675C-20.2085 455.633 36.1303 506.233 102.088 502.693L1502.9 427.521C1576.29 423.582 1632.59 360.897 1628.65 287.509C1625.65 231.524 1586.47 190.891 1530.41 190.014C1459.43 188.904 1372.99 189.14 1364.52 189.594L1170.54 200.004C1143.57 201.451 1117.5 210.106 1095.01 225.068L1005.69 284.495C999.193 288.82 992.368 292.633 985.279 295.902L872.67 347.828C802.888 380.006 719.821 354.768 681.235 288.315C658.726 249.548 640.185 216.31 637.997 208.553C635.692 200.382 618.194 183.99 597.686 167.131C563.617 139.121 517.765 131.251 474.992 142.011L312.158 182.977Z" fill="url(#paint2_linear_15_1244)"/>
<path d="M230.54 154.164L33.9095 184.695C-17.259 192.64 -55.0007 236.694 -55.0007 288.476C-55.0007 346.479 -7.97972 393.5 50.0236 393.5H1586.72C1628.02 393.5 1661.5 360.021 1661.5 318.723C1661.5 270.247 1616.08 234.601 1568.95 245.939C1535.19 254.058 1506.03 260.976 1500.5 262C1487 264.5 1226.5 223.5 1215 223.5C1205.8 223.5 1119.17 197.833 1077 185L859.43 150.425C832.721 146.181 805.447 147.061 779.067 153.02L637.499 185L532.719 207.856C486.247 217.993 437.719 212.283 394.869 191.637L355.677 172.754C316.81 154.027 273.173 147.544 230.54 154.164Z" fill="#232323"/>
</g>
<defs>
<linearGradient id="paint0_linear_15_1244" x1="653.499" y1="-9" x2="653.499" y2="739" gradientUnits="userSpaceOnUse">
<stop stop-color="#3D3D3D"/>
<stop offset="0.25" stop-color="#383838" stop-opacity="0"/>
</linearGradient>
<linearGradient id="paint1_linear_15_1244" x1="849.499" y1="44" x2="849.499" y2="571.5" gradientUnits="userSpaceOnUse">
<stop stop-color="#3D3D3D"/>
<stop offset="0.1875" stop-color="#2F2F2F" stop-opacity="0"/>
</linearGradient>
<linearGradient id="paint2_linear_15_1244" x1="790.279" y1="111.754" x2="809.221" y2="464.746" gradientUnits="userSpaceOnUse">
<stop stop-color="#3D3D3D"/>
<stop offset="0.192708" stop-color="#383838" stop-opacity="0"/>
</linearGradient>
<clipPath id="clip0_15_1244">
<rect width="1512" height="386" fill="white"/>
</clipPath>
</defs>
</svg>

<svg xmlns="http://www.w3.org/2000/svg" width="1512" height="1146" fill="none"><path fill="#222" d="M0 0h1512v1146H0z"/><g clip-path="url(#a)"><path fill="url(#b)" d="M239.594-9-240.63 21.688c-79.494 5.08-141.371 71.036-141.371 150.692V588c0 83.395 67.605 151 151 151H1538c83.39 0 151-67.605 151-151V152.611c0-65.57-42.32-123.646-104.73-143.737l-32.97-10.61A150.93 150.93 0 0 0 1505.04-9h-163.07c-21.21 0-315.22 39.721-349.392 39.721-20.32 0-107.213 13.87-179.442 26.145-42.205 7.173-85.164-4.05-120.313-28.488-14.656-10.19-27.778-18.545-34.316-20.87C643.424 2.143 372.947-5.732 239.594-9Z"/><path fill="url(#c)" d="M272.904 47.35 36.504 91.13C-35.07 104.383-87.001 166.814-87.001 239.604V420.5c0 83.395 67.605 151 151 151H1635c83.39 0 151-67.605 151-151V241c0-56.333-45.67-102-102-102-66.5 5.333-201.7 16.4-210.5 18-8.8 1.6-240.67 46-355.5 68l-139.771 27.818c-42.142 8.388-85.925-1.481-119.906-27.78-46.173-35.735-96.398-75.979-102.824-86.038-7.171-11.225-54.1-38.773-91.577-59.297-18.64-10.208-39.389-15.856-60.603-17.118l-293.95-17.492a151.006 151.006 0 0 0-36.465 2.258Z"/><path fill="url(#d)" d="m312.158 182.977-195.209 66.891a75.781 75.781 0 0 1-46.468.858c-50.285-15.182-100.39 24.155-97.575 76.606l3.346 62.343c3.54 65.958 59.878 116.558 125.836 113.018L1502.9 427.521c73.39-3.939 129.69-66.624 125.75-140.012-3-55.985-42.18-96.618-98.24-97.495-70.98-1.11-157.42-.874-165.89-.42l-193.98 10.41a150.933 150.933 0 0 0-75.53 25.064l-89.32 59.427a150.764 150.764 0 0 1-20.411 11.407L872.67 347.828c-69.782 32.178-152.849 6.94-191.435-59.513-22.509-38.767-41.05-72.005-43.238-79.762-2.305-8.171-19.803-24.563-40.311-41.422-34.069-28.01-79.921-35.88-122.694-25.12l-162.834 40.966Z"/><path fill="#232323" d="M230.54 154.164 33.91 184.695C-17.26 192.64-55 236.694-55 288.476-55 346.479-7.98 393.5 50.023 393.5H1586.72c41.3 0 74.78-33.479 74.78-74.777 0-48.476-45.42-84.122-92.55-72.784-33.76 8.119-62.92 15.037-68.45 16.061-13.5 2.5-274-38.5-285.5-38.5-9.2 0-95.83-25.667-138-38.5l-217.57-34.575a213.015 213.015 0 0 0-80.363 2.595L637.499 185l-104.78 22.856a213 213 0 0 1-137.85-16.219l-39.192-18.883a212.996 212.996 0 0 0-125.137-18.59Z"/></g><defs><linearGradient id="b" x1="653.499" x2="653.499" y1="-9" y2="739" gradientUnits="userSpaceOnUse"><stop stop-color="#3D3D3D"/><stop offset=".25" stop-color="#383838" stop-opacity="0"/></linearGradient><linearGradient id="c" x1="849.499" x2="849.499" y1="44" y2="571.5" gradientUnits="userSpaceOnUse"><stop stop-color="#3D3D3D"/><stop offset=".188" stop-color="#2F2F2F" stop-opacity="0"/></linearGradient><linearGradient id="d" x1="790.279" x2="809.221" y1="111.754" y2="464.746" gradientUnits="userSpaceOnUse"><stop stop-color="#3D3D3D"/><stop offset=".193" stop-color="#383838" stop-opacity="0"/></linearGradient><clipPath id="a"><path fill="#fff" d="M0 0h1512v386H0z"/></clipPath></defs></svg>
